X:712
T: ES FUHR GEN ACKER EIN GROBER BAUER
N: E2156
O: Europa, Mitteleuropa, Deutschland
R: geistlich, Moral - Lied, Tod
M: 3/4
L: 1/8
K: Bb
 | d2f3f | B2e2d2 | c3BB2
e2B2c2 | B3_AG2 | F3ED2
F2B2B2 | B3cd2 | c3BB2
d2d2f2 | B4B2 | e3dc2
B2B3_A | G2A2B2 | B3AB2

